X: 157
T: Credo L'amour de moy
N: Derived from Rue1037-Credo_Lamour_de_moy.krn
C: Pierre de la Rue
%%abc-version 2.0
%%abcx-abcm2ps-target-version 5.9.1 (29 Sep 2008)
%%abc-creator hum2abc beta
%%abcx-conversion-date 2019/02/17 08:01:16
%%abc-edited-by Jesse Rodin
%%abc-edited-by Chris Gage 07-08-2013
%%abcx-initial-encoding-date 2013/07/31/
%%humdrum-veritas 2419417353
%%humdrum-veritas-data 3620947675
%%linebreak <none>
%%barnumbers 0
L: 1/4
M: 2/1
Q: 1/2=120
%%staves [1 2 3 4]
V: 1 clef=treble
V: 2 clef=treble-8
V: 3 clef=treble-8
V: 4 clef=bass
K: F
[V:1] z8 | 
[V:2] z8 | 
[V:3] c8 | 
[V:4] z8 | 
[V:1] z8 | 
[V:2] z8 | 
[V:3] F4F4 | 
[V:4] C8 | 
[V:1] z8 | 
[V:2] z8 | 
[V:3] A3Bc2d2 | 
[V:4] F,4F,4 | 
[V:1] c8 | 
[V:2] z8 | 
[V:3] c4F4 | 
[V:4] A,6B,2 | 
[V:1] F4F4 | 
[V:2] z8 | 
[V:3] F8 | 
[V:4] C2D2C4 | 
[V:1] A3Bc2d2 | 
[V:2] z4f4- | 
[V:3] z8 | 
[V:4] F,8- | 
[V:1] c4F4 | 
[V:2] f2f2f4 | 
[V:3] z8 | 
[V:4] F,8 | 
[V:1] z4B4- | 
[V:2] g2g4f2 | 
[V:3] z8 | 
[V:4] z8 | 
[V:1] B2B2B4 | 
[V:2] e2dcd2d2 | 
[V:3] z8 | 
[V:4] z8 | 
[V:1] c2c4B2 | 
[V:2] c4z4 | 
[V:3] z4c4- | 
[V:4] z8 | 
[V:1] A2GFG2G2 | 
[V:2] z4e4 | 
[V:3] c2c2c2c2 | 
[V:4] z8 | 
[V:1] F4z4 | 
[V:2] f3gaba2- | 
[V:3] d2d4c2 | 
[V:4] z4D,4- | 
[V:1] z4A4 | 
[V:2] a2g4^f2 | 
[V:3] B2AGA4 | 
[V:4] D,2D,2D,2D,2 | 
[V:1] B3cd_ed2- | 
[V:2] g8- | 
[V:3] G2G2B3c | 
[V:4] G,8 | 
[V:1] d2c3=B=BA | 
[V:2] g8 | 
[V:3] d2e2d4 | 
[V:4] G,8 | 
[V:1] c8- | 
[V:2] g4g2g2 | 
[V:3] c8- | 
[V:4] C,8- | 
[V:1] c8 | 
[V:2] e2c2e3f | 
[V:3] c8 | 
[V:4] C,8 | 
[V:1] z8 | 
[V:2] g2a2g4 | 
[V:3] z8 | 
[V:4] C4C2C2 | 
[V:1] z8 | 
[V:2] c4z2f2- | 
[V:3] z8 | 
[V:4] A,4F,4 | 
[V:1] z8 | 
[V:2] f2ede2f2 | 
[V:3] z8 | 
[V:4] A,3B,C2D2 | 
[V:1] z8 | 
[V:2] g2a4gf | 
[V:3] z8 | 
[V:4] C2F,4E,D, | 
[V:1] z8 | 
[V:2] g2f3ee2 | 
[V:3] c4c2c2 | 
[V:4] E,2F,2C,4 | 
[V:1] c4c2c2 | 
[V:2] f8- | 
[V:3] A4F4 | 
[V:4] F,8- | 
[V:1] A4F4 | 
[V:2] f8 | 
[V:3] A4d4 | 
[V:4] F,8 | 
[V:1] A3Bcdc2- | 
[V:2] z8 | 
[V:3] c3BAGA2- | 
[V:4] z8 | 
[V:1] cBAGB2AG- | 
[V:2] z8 | 
[V:3] ABc2d2c2 | 
[V:4] z8 | 
[V:1] GFF4E2 | 
[V:2] z8 | 
[V:3] F4G4 | 
[V:4] z4C,4 | 
[V:1] F8 | 
[V:2] a4a2a2 | 
[V:3] F8 | 
[V:4] D,4D,2D,2- | 
[V:1] z8 | 
[V:2] a2f4ed | 
[V:3] z8 | 
[V:4] D,2D,3E,F,G, | 
[V:1] z4G4 | 
[V:2] c2d4^c2 | 
[V:3] F4G4 | 
[V:4] A,2D,2E,4 | 
[V:1] F2F2FGAB | 
[V:2] d2d2defg | 
[V:3] A2B2A2d2 | 
[V:4] D,8 | 
[V:1] c2d3^cc2 | 
[V:2] a2d2e4 | 
[V:3] c2B2A4 | 
[V:4] z8 | 
[V:1] d8 | 
[V:2] d8 | 
[V:3] z8 | 
[V:4] D,4D,2D,2 | 
[V:1] z8 | 
[V:2] z8 | 
[V:3] d4d2e2 | 
[V:4] F,4G,4 | 
[V:1] d6e2 | 
[V:2] z8 | 
[V:3] f2f4e2 | 
[V:4] D,8- | 
[V:1] f2f4e2 | 
[V:2] z8 | 
[V:3] d6cB | 
[V:4] D,8 | 
[V:1] d6cB | 
[V:2] f4f4 | 
[V:3] A4d4 | 
[V:4] D,8 | 
[V:1] A3GA2B2- | 
[V:2] e3de2f2- | 
[V:3] c3Bc2d2 | 
[V:4] z8 | 
[V:1] B2A4G2 | 
[V:2] f2e4d2 | 
[V:3] A4B4 | 
[V:4] z8 | 
[V:1] A8 | 
[V:2] e8 | 
[V:3] A8- | 
[V:4] C4C2C2 | 
[V:1] z8 | 
[V:2] a4a2a2 | 
[V:3] A8 | 
[V:4] F,4F,4 | 
[V:1] z8 | 
[V:2] d4d4 | 
[V:3] z8 | 
[V:4] G,3A,B,2B,2 | 
[V:1] z8 | 
[V:2] e3fgag2- | 
[V:3] z8 | 
[V:4] C6B,A, | 
[V:1] z8 | 
[V:2] g2f4e2 | 
[V:3] z8 | 
[V:4] B,A,G,F,G,4 | 
[V:1] A4A2A2- | 
[V:2] f8 | 
[V:3] c6c2 | 
[V:4] F,8 | 
[V:1] A2A2B4 | 
[V:2] z8 | 
[V:3] c2c2d4 | 
[V:4] z8 | 
[V:1] A4z2A2 | 
[V:2] z4f4 | 
[V:3] c8 | 
[V:4] z4F,4 | 
[V:1] A2A2A2c2- | 
[V:2] f2f4ed | 
[V:3] z2c4c2 | 
[V:4] F,2F,4F,2 | 
[V:1] c2BAB4 | 
[V:2] c2f4e2 | 
[V:3] c2c2d2B2 | 
[V:4] A,2A,2G,4 | 
[V:1] A8 | 
[V:2] f4f4 | 
[V:3] c4d4 | 
[V:4] F,8 | 
[V:1] c4c2c2 | 
[V:2] e4z4 | 
[V:3] c2c2c2F2 | 
[V:4] A,4A,4 | 
[V:1] F4F4 | 
[V:2] a4a2a2 | 
[V:3] A4d4 | 
[V:4] D,8 | 
[V:1] A3BcBc2- | 
[V:2] f4f3g | 
[V:3] c3BAGA2- | 
[V:4] F,4F,3E, | 
[V:1] cBGAB3A | 
[V:2] a2d4e2- | 
[V:3] AGB3AGF | 
[V:4] F,2G,3F,E,D, | 
[V:1] GFF4E2 | 
[V:2] edcBc4 | 
[V:3] B2A2G4 | 
[V:4] E,2F,2C,4 | 
[V:1] F8 | 
[V:2] A8 | 
[V:3] F8 | 
[V:4] z2C2C2C2 | 
[V:1] z8 | 
[V:2] z2c2c2c2 | 
[V:3] z8 | 
[V:4] F,2A,3G,F,2- | 
[V:1] z8 | 
[V:2] e2f3ee2 | 
[V:3] c4c2c2 | 
[V:4] F,2E,D,C,4 | 
[V:1] z8 | 
[V:2] f8 | 
[V:3] F2F2A3B | 
[V:4] z2F,2F,2F,2 | 
[V:1] z8 | 
[V:2] z4z2f2 | 
[V:3] c2d4c2- | 
[V:4] E,2F,3E,D,C, | 
[V:1] z4c4 | 
[V:2] f2f2edef | 
[V:3] c2B2c2BA | 
[V:4] D,4C,4- | 
[V:1] c4c4 | 
[V:2] g2f3ee2 | 
[V:3] G8 | 
[V:4] C,4C,4 | 
[V:1] A4F4 | 
[V:2] f8- | 
[V:3] z2d2d2d2 | 
[V:4] D,4D,4 | 
[V:1] A4d4 | 
[V:2] f8- | 
[V:3] c2A2B2B2 | 
[V:4] F,4B,,4 | 
[V:1] c4c2c2- | 
[V:2] f8 | 
[V:3] A4A2A2 | 
[V:4] F,8 | 
[V:1] cBAGFEG2- | 
[V:2] z2f2d2e2 | 
[V:3] c3BAGB2 | 
[V:4] z2F,2F,2E,2 | 
[V:1] G2F3EE2 | 
[V:2] c2B2c4 | 
[V:3] BAGFG4 | 
[V:4] F,2D,2C,4 | 
[V:1] F8 ||  
[V:2] c8 ||  
[V:3] F8 ||  
[V:4] F,8 ||  
[V:1]  [K:F] [K:clef=treble][M:2/1]c4c2c2 | 
[V:2]  [K:F] [K:clef=treble-8][M:2/1]z8 | 
[V:3]  [K:F] [K:clef=treble-8][M:2/1]z8 | 
[V:4]  [K:F] [K:clef=bass][M:2/1]z8 | 
[V:1] d6c2 | 
[V:2] f4f2f2 | 
[V:3] z8 | 
[V:4] z8 | 
[V:1] B3AG4 | 
[V:2] g6f2 | 
[V:3] z8 | 
[V:4] z8 | 
[V:1] z2c2c2c2 | 
[V:2] e3dc2e2 | 
[V:3] z8 | 
[V:4] z8 | 
[V:1] A3Bc2d2- | 
[V:2] f2a2a2g2- | 
[V:3] z8 | 
[V:4] z8 | 
[V:1] d2c3=B=B2 | 
[V:2] g2fed4 | 
[V:3] z8 | 
[V:4] G,4G,4 | 
[V:1] c8 | 
[V:2] c4z4 | 
[V:3] c4c4 | 
[V:4] A,6G,2 | 
[V:1] z8 | 
[V:2] z8 | 
[V:3] d6c2 | 
[V:4] F,2E,2D,4 | 
[V:1] z8 | 
[V:2] z8 | 
[V:3] B3AGABc | 
[V:4] z2G,4F,E, | 
[V:1] z8 | 
[V:2] z8 | 
[V:3] d2c4=B2 | 
[V:4] F,E,D,C,D,4 | 
[V:1] z8 | 
[V:2] z8 | 
[V:3] c8 | 
[V:4] C,8 | 
[V:1] A4A4 | 
[V:2] f4f4 | 
[V:3] c4c4 | 
[V:4] F,4F,4 | 
[V:1] B4A2G2- | 
[V:2] f4f2e2- | 
[V:3] d4c2B2- | 
[V:4] B,,4F,2G,2 | 
[V:1] G2F3EE2 | 
[V:2] edcBc4 | 
[V:3] BFA2G4 | 
[V:4] E,2F,2C,4 | 
[V:1] F8 | 
[V:2] c8 | 
[V:3] F8 | 
[V:4] z2A,2A,2A,2 | 
[V:1] z8 | 
[V:2] z8 | 
[V:3] z2A2A2A2 | 
[V:4] C3B,CB,A,G, | 
[V:1] z2A2A2A2 | 
[V:2] z8 | 
[V:3] c3BcBAG | 
[V:4] F,8 | 
[V:1] c3BcBAG | 
[V:2] z2f2f2f2 | 
[V:3] F8- | 
[V:4] z8 | 
[V:1] F8 | 
[V:2] a3gagfe | 
[V:3] F8 | 
[V:4] z8 | 
[V:1] z2A2B2B2 | 
[V:2] d4z2g2 | 
[V:3] z8 | 
[V:4] z8 | 
[V:1] A3Bcde2- | 
[V:2] f2a4g2- | 
[V:3] z8 | 
[V:4] z8 | 
[V:1] e2d4^c2 | 
[V:2] gfede4 | 
[V:3] z8 | 
[V:4] z8 | 
[V:1] d8 | 
[V:2] d8 | 
[V:3] z8 | 
[V:4] z8 | 
[V:1] A4A4 | 
[V:2] f4f4 | 
[V:3] c4c4 | 
[V:4] F,4F,4 | 
[V:1] B4A2d2- | 
[V:2] f4a4 | 
[V:3] d4d4 | 
[V:4] B,4F,4 | 
[V:1] dcBAB4 | 
[V:2] g4g4 | 
[V:3] d4d4 | 
[V:4] G,4G,4 | 
[V:1] A8 | 
[V:2] f8 | 
[V:3] d4z2d2 | 
[V:4] D,8- | 
[V:1] z8 | 
[V:2] z8 | 
[V:3] d2d2f4- | 
[V:4] D,8- | 
[V:1] z2d2d2d2 | 
[V:2] z8 | 
[V:3] f2edd2cB | 
[V:4] D,8- | 
[V:1] f6ed | 
[V:2] z4z2d2 | 
[V:3] A8 | 
[V:4] D,8 | 
[V:1] d2cBA2d2- | 
[V:2] d2d2f4- | 
[V:3] z8 | 
[V:4] z8 | 
[V:1] d2c2B2c2- | 
[V:2] f2edd2cB | 
[V:3] z8 | 
[V:4] z8 | 
[V:1] cBA4G2 | 
[V:2] A3cB4 | 
[V:3] z8 | 
[V:4] z8 | 
[V:1] A8 | 
[V:2] A8 | 
[V:3] c4c2c2 | 
[V:4] z8 | 
[V:1] z8 | 
[V:2] z8 | 
[V:3] F4F3G | 
[V:4] A,4A,2A,2 | 
[V:1] d4d2d2 | 
[V:2] z8 | 
[V:3] A2B2A4 | 
[V:4] D,8 | 
[V:1] c4c4 | 
[V:2] a4a2a2 | 
[V:3] A8 | 
[V:4] F,8 | 
[V:1] f6ed | 
[V:2] d2d2d4 | 
[V:3] B8 | 
[V:4] B,,8 | 
[V:1] e2e2c2d2- | 
[V:2] g4a2a2- | 
[V:3] G6F2- | 
[V:4] C,2C,2E,2D,2- | 
[V:1] dcBAG2A2 | 
[V:2] a2g2e2f2 | 
[V:3] F2B4A2 | 
[V:4] D,2G,4F,2 | 
[V:1] G2c4=B2 | 
[V:2] g4g4 | 
[V:3] B2c2d4 | 
[V:4] E,2C,2G,4 | 
[V:1] c8 | 
[V:2] e2g2g2e2 | 
[V:3] c8 | 
[V:4] C,8 | 
[V:1] z8 | 
[V:2] g3fedc2 | 
[V:3] z8 | 
[V:4] z2C2C2C2 | 
[V:1] z8 | 
[V:2] e3fg2a2- | 
[V:3] z8 | 
[V:4] A,2C3B,A,G, | 
[V:1] z8 | 
[V:2] a2f3ee2 | 
[V:3] z2c2c2c2 | 
[V:4] F,3E,C,4 | 
[V:1] z8 | 
[V:2] f4z4 | 
[V:3] A3Bc2d2- | 
[V:4] F,2F,2E,2D,2 | 
[V:1] z8 | 
[V:2] z8 | 
[V:3] d2c4=B2 | 
[V:4] F,E,D,C,D,4 | 
[V:1] z8 | 
[V:2] z8 | 
[V:3] c8 | 
[V:4] C,8 | 
[V:1] A4A4 | 
[V:2] f4f4 | 
[V:3] c4c4 | 
[V:4] F,4F,4 | 
[V:1] B3A/G/FEG2- | 
[V:2] f6ed | 
[V:3] d3cA2B2- | 
[V:4] B,,3C,D,2B,,2 | 
[V:1] G2F4E2 | 
[V:2] c2B2c4 | 
[V:3] BAF2G4 | 
[V:4] C,2D,2C,4 | 
[V:1] F4z2A2 | 
[V:2] z2c2c2c2 | 
[V:3] F8 | 
[V:4] F,4z4 | 
[V:1] A2A2c4- | 
[V:2] f6ed | 
[V:3] z8 | 
[V:4] z8 | 
[V:1] c2BAGAB2 | 
[V:2] c3defg2- | 
[V:3] z8 | 
[V:4] z8 | 
[V:1] A2F2G4 | 
[V:2] g2f4e2 | 
[V:3] z8 | 
[V:4] z8 | 
[V:1] F4z4 | 
[V:2] f8 | 
[V:3] c6c2 | 
[V:4] F,4F,2F,2- | 
[V:1] z8 | 
[V:2] z8 | 
[V:3] c2c2c4 | 
[V:4] F,E,D,C,E,2E,2 | 
[V:1] z8 | 
[V:2] z8 | 
[V:3] d6c2 | 
[V:4] D,3E,F,G,A,2- | 
[V:1] z8 | 
[V:2] z8 | 
[V:3] B2AGA4 | 
[V:4] A,2G,4^F,2 | 
[V:1] B4B4 | 
[V:2] z4g4 | 
[V:3] G8 | 
[V:4] G,4z4 | 
[V:1] AGABc2d2- | 
[V:2] fefga2f2 | 
[V:3] z8 | 
[V:4] z8 | 
[V:1] d2c4B2 | 
[V:2] g2fedcd2 | 
[V:3] z8 | 
[V:4] G,4G,4 | 
[V:1] c4A4 | 
[V:2] c2c2d2d2 | 
[V:3] z4z2d2 | 
[V:4] A,3D,D,4 | 
[V:1] z4z2d2 | 
[V:2] f6ed | 
[V:3] d2d2d4- | 
[V:4] D,4D,3E, | 
[V:1] d2d2f4- | 
[V:2] d2cBA2B2 | 
[V:3] d2d2d2d2 | 
[V:4] F,2G,2D,4- | 
[V:1] f2edd2cB | 
[V:2] A4A4 | 
[V:3] f6ed | 
[V:4] D,4D,4- | 
[V:1] A2B2cBAG | 
[V:2] A4G4 | 
[V:3] d4c4 | 
[V:4] D,4E,4 | 
[V:1] F2d2d2d2 | 
[V:2] A2a2a2a2 | 
[V:3] d2f2f2f2 | 
[V:4] D,2D,2D,2D,2 | 
[V:1] c4A2B2- | 
[V:2] a3gfeg2 | 
[V:3] e4c2d2- | 
[V:4] A,4A,2G,2- | 
[V:1] B2A4G2 | 
[V:2] e2f2d4 | 
[V:3] dcBAB4 | 
[V:4] G,F,F,2G,4 | 
[V:1] A8- | 
[V:2] e8 | 
[V:3] A8 | 
[V:4] C4C2C2 | 
[V:1] A8 | 
[V:2] z8 | 
[V:3] c4c2c2 | 
[V:4] A,2A,2F,4- | 
[V:1] z8 | 
[V:2] a4a2a2 | 
[V:3] A2A2F2F2 | 
[V:4] F,4z2F,2 | 
[V:1] z8 | 
[V:2] f3ga2b2 | 
[V:3] c3de2f2 | 
[V:4] A,3B,C2D2 | 
[V:1] z8 | 
[V:2] a3gfeg2- | 
[V:3] e2c4d2- | 
[V:4] C4A,2B,2- | 
[V:1] z8 | 
[V:2] gff3ee2 | 
[V:3] d2c4B2 | 
[V:4] B,A,G,F,G,4 | 
[V:1] z4A4- | 
[V:2] f4f4- | 
[V:3] c4c4- | 
[V:4] F,4F,4- | 
[V:1] A2A2d2d2 | 
[V:2] f2f2f3g | 
[V:3] c2c2B2B2 | 
[V:4] F,2F,2B,,2B,,2 | 
[V:1] c4A2c2- | 
[V:2] a2a2agfe | 
[V:3] A4c4 | 
[V:4] F,3G,A,2A,2- | 
[V:1] cBAGA2G2- | 
[V:2] f3edcc2- | 
[V:3] A2c3BAG | 
[V:4] A,G,F,E,F,2E,2 | 
[V:1] G2F3EE2 | 
[V:2] c2B2c4 | 
[V:3] A2F2G4 | 
[V:4] F,2D,2C,4 | 
[V:1] F8 | 
[V:2] z4f4- | 
[V:3] F4z4 | 
[V:4] F,8- | 
[V:1] z4c4 | 
[V:2] f2a4g2 | 
[V:3] z8 | 
[V:4] F,8 | 
[V:1] c2c4c2 | 
[V:2] f2ede4 | 
[V:3] z8 | 
[V:4] z8 | 
[V:1] d6c2 | 
[V:2] d3efga2- | 
[V:3] z8 | 
[V:4] z8 | 
[V:1] B2AGA4 | 
[V:2] a2g4f2 | 
[V:3] z8 | 
[V:4] z8 | 
[V:1] G2d4c2 | 
[V:2] g2fed2e2- | 
[V:3] z2B4A2 | 
[V:4] z8 | 
[V:1] B2AGA4 | 
[V:2] edg4^f2 | 
[V:3] G4d4 | 
[V:4] z8 | 
[V:1] G3ABcd2- | 
[V:2] g4z4 | 
[V:3] e3cdef2- | 
[V:4] z8 | 
[V:1] dGc4=B2 | 
[V:2] z8 | 
[V:3] fedcd4 | 
[V:4] z8 | 
[V:1] [M:3/1]c12 | 
[V:2] [M:3/1]e4e4e4 | 
[V:3] [M:3/1]c12 | 
[V:4] [M:3/1]A,4A,4A,4 | 
[V:1] [M:3/1]d4d4d4 | 
[V:2] f4d2e2f2g2 | 
[V:3] [M:3/1]z12 | 
[V:4] D,12- | 
[V:1] f8e4 | 
[V:2] a8a4 | 
[V:3] d4d4c4 | 
[V:4] D,8z4 | 
[V:1] d8c2B2 | 
[V:2] a4g2f4ed | 
[V:3] f8f4 | 
[V:4] D,4D,4D,4 | 
[V:1] A8z4 | 
[V:2] c8z4 | 
[V:3] f8e4 | 
[V:4] F,6G,2A,4 | 
[V:1] z12 | 
[V:2] f6d2f2g2 | 
[V:3] d8c2B2 | 
[V:4] D,12- | 
[V:1] d4d4d4 | 
[V:2] a8a4 | 
[V:3] A8z4 | 
[V:4] D,12 | 
[V:1] f8e4 | 
[V:2] a8z4 | 
[V:3] d4d4c4 | 
[V:4] z12 | 
[V:1] d8c2B2 | 
[V:2] a8a4 | 
[V:3] f8e2d2 | 
[V:4] D,8D,4 | 
[V:1] A2G2B6A2 | 
[V:2] f8f4- | 
[V:3] c2B2d4c4 | 
[V:4] F,4B,,4F,4- | 
[V:1] A8G4 | 
[V:2] f4d8 | 
[V:3] A4B6c2 | 
[V:4] F,4G,8 | 
[V:1] A12 | 
[V:2] e12 | 
[V:3] A12 | 
[V:4] C4C4C4 | 
[V:1] z12 | 
[V:2] z12 | 
[V:3] c4c4c4 | 
[V:4] F,8F,4 | 
[V:1] c4c4c4 | 
[V:2] z12 | 
[V:3] F8F4 | 
[V:4] A,6B,2C2D2 | 
[V:1] F8F4 | 
[V:2] z12 | 
[V:3] A6B2c2d2 | 
[V:4] C6B,2A,2G,2 | 
[V:1] A6B2c2d2 | 
[V:2] f6g2a4 | 
[V:3] c6B2A2G2 | 
[V:4] A,4F,8 | 
[V:1] c6B2A2G2 | 
[V:2] a6g2e2f2 | 
[V:3] A6B2c4 | 
[V:4] F,6G,2A,4 | 
[V:1] B4A2G4F2 | 
[V:2] g4e4f4- | 
[V:3] d4c6B2 | 
[V:4] G,4C,4D,4- | 
[V:1] F8E4 | 
[V:2] f2B2c4g4 | 
[V:3] A2F2G8 | 
[V:4] D,4C,8 | 
[V:1] [M:2/1]F8 | 
[V:2] [M:2/1]a2a4gf | 
[V:3] [M:2/1]F8 | 
[V:4] [M:2/1]z2A,2A,2A,2 | 
[V:1] z8 | 
[V:2] e3de4 | 
[V:3] z2A2A2A2 | 
[V:4] C3B,CB,A,G, | 
[V:1] z2A2A2A2 | 
[V:2] f8 | 
[V:3] c3BcBAG | 
[V:4] F,4F,4 | 
[V:1] c3BcBAG | 
[V:2] f4f4 | 
[V:3] F4z2c2 | 
[V:4] A,3G,A,G,F,E, | 
[V:1] F2c2d4 | 
[V:2] f8 | 
[V:3] d2A2B4 | 
[V:4] D,2F,2B,,4 | 
[V:1] c2A2B4 | 
[V:2] f3ed2f2- | 
[V:3] A4z2d2 | 
[V:4] F,4z2B,,2 | 
[V:1] A4z2f2- | 
[V:2] fec2d2B2 | 
[V:3] c2f3ef2 | 
[V:4] F,4D,4 | 
[V:1] f2e2c2d2- | 
[V:2] c3de2d2 | 
[V:3] g4z2g2- | 
[V:4] C,4z2G,2- | 
[V:1] d2c2A2B2- | 
[V:2] B2c2d2B2- | 
[V:3] g2e2fedc | 
[V:4] G,2A,2F,2G,2- | 
[V:1] BAGFA2G2- | 
[V:2] Bcd2e3f | 
[V:3] B3Ac4 | 
[V:4] G,F,E,D,C,3D, | 
[V:1] GFF4E2 | 
[V:2] g2c4c2 | 
[V:3] BAGFG4 | 
[V:4] E,2F,2C,4 | 
[V:1] F6ED | 
[V:2] d8 | 
[V:3] A4B4 | 
[V:4] F,4B,,4 | 
[V:1] !fermata!E8 | 
[V:2] !fermata!c8 | 
[V:3] !fermata!G8 | 
[V:4] !fermata!C,8 | 
[V:1] F8 | 
[V:2] c8- | 
[V:3] F8- | 
[V:4] F,8- | 
[V:1] F8 |]  
[V:2] c8 |]  
[V:3] F8 |]  
[V:4] F,8 |]  



